.local/share/icons/Gruvbox-Plus-Dark/actions/16/virtual-desktops.svg

<svg width="16" height="16" version="1.1" xmlns="http://www.w3.org/2000/svg">
  <defs>
    <style id="current-color-scheme" type="text/css">.ColorScheme-Text { color:#ebdbb2; } .ColorScheme-Highlight { color:#458588; }</style>
  </defs>
  <path class="ColorScheme-Text" d="m1 2v5h6v-5h-6zm8 0v5h6v-5h-6zm-7 1h2v1h-2v-1zm-1 6v5h6v-5h-6zm8 0v5h6v-5h-6zm3 3h2v1h-2v-1z" fill="currentColor"/>
</svg>

<svg xmlns="http://www.w3.org/2000/svg" width="16" height="16" version="1.1">
 <defs>
  <style id="current-color-scheme" type="text/css">
   .ColorScheme-Text { color:#555555; } .ColorScheme-Highlight { color:#4285f4; } .ColorScheme-NeutralText { color:#ff9800; } .ColorScheme-PositiveText { color:#4caf50; } .ColorScheme-NegativeText { color:#f44336; }
  </style>
 </defs>
 <path style="fill:currentColor" class="ColorScheme-Text" d="M 1 2 L 1 7 L 7 7 L 7 2 L 1 2 z M 9 2 L 9 7 L 15 7 L 15 2 L 9 2 z M 2 3 L 4 3 L 4 4 L 2 4 L 2 3 z M 1 9 L 1 14 L 7 14 L 7 9 L 1 9 z M 9 9 L 9 14 L 15 14 L 15 9 L 9 9 z M 12 12 L 14 12 L 14 13 L 12 13 L 12 12 z"/>
</svg>
